components/icon/svg/24/ticket_return-journey.svg

<?xml version="1.0" encoding="UTF-8"?>
<svg width="24px" height="24px" viewBox="0 0 24 24" version="1.1" xmlns="http://www.w3.org/2000/svg" xmlns:xlink="http://www.w3.org/1999/xlink">
    <!-- Generator: Sketch 64 (93537) - https://sketch.com -->
    <title>ic-db_ticket_return-journey_24</title>
    <desc>Created with Sketch.</desc>
    <g id="Symbols" stroke="none" stroke-width="1" fill="none" fill-rule="evenodd">
        <g id="24dp-Icon/Ticket/Return-Journey" fill="#282D37">
            <path d="M2,18.9903 L2,5.0097 C2,3.3269 3.3269,2 4.9774,2 L8.0194,2 C8.5696,2 8.9903,2.4531 8.9903,3.0032 C8.9903,3.5534 8.5696,4.0065 8.0194,4.0065 L4.9774,4.0065 C4.4596,4.0065 4.0065,4.4595 4.0065,5.0097 L4.0065,18.9903 C4.0065,19.5405 4.4596,19.9935 4.9774,19.9935 L13.0033,19.9935 C13.5534,19.9935 14.0065,19.5405 14.0065,18.9903 L14.0065,17.0485 C14.0065,16.466 14.4596,16.0777 14.9774,16.0777 C15.5599,16.0777 15.9806,16.466 15.9806,17.0485 L15.9806,18.9903 C15.9806,20.6731 14.6537,22 13.0033,22 L4.9774,22 C3.3269,22 2,20.6731 2,18.9903 Z M5,16.9841083 C5,16.4761624 5.45155502,16 6,16 C6.54844498,16 7,16.4761624 7,16.9841083 C7,17.5238376 6.54844498,18 6,18 C5.45155502,18 5,17.5238376 5,16.9841083 Z M8,16.9841083 C8,16.4761624 8.42621954,16 8.98363811,16 C9.57378046,16 10,16.4761624 10,16.9841083 C10,17.5238376 9.57378046,18 8.98363811,18 C8.42621954,18 8,17.5238376 8,16.9841083 Z M11.00165,16.9841083 C11.00165,16.4761624 11.4532822,16 12.0016002,16 C12.5500178,16 13.00165,16.4761624 13.00165,16.9841083 C13.00165,17.5238376 12.5500178,18 12.0016002,18 C11.4532822,18 11.00165,17.5238376 11.00165,16.9841083 Z M15.9838587,2 C19.3153542,2 22,4.68464582 22,8.01614126 C22,11.3153542 19.3153542,14 15.9838587,14 C12.6846458,14 10,11.3153542 10,8.01614126 C10,4.68464582 12.6846458,2 15.9838587,2 Z M16.7686,4.6 C16.5097,4.6 16.2508,4.7295 16.0566,4.8913 L16.0566,4.8913 L13.856,7.0919 C13.6295,7.3185 13.5,7.5774 13.5,7.8039 C13.5,8.0628 13.6295,8.3217 13.856,8.5483 L13.856,8.5483 L16.0566,10.7165 C16.2508,10.9107 16.5097,11.0078 16.7686,11.0078 C17.3511,11.0078 17.8042,10.5547 17.8042,9.9722 C17.8042,9.7133 17.6748,9.4544 17.5129,9.2602 L17.5129,9.2602 L16.0566,7.8039 L17.5129,6.3476 C17.6748,6.1534 17.8042,5.8945 17.8042,5.6356 C17.8042,5.0531 17.3511,4.6 16.7686,4.6 Z" id="🎨-Color"></path>
        </g>
    </g>
</svg>

<svg width="24" height="24" xmlns="http://www.w3.org/2000/svg"><path d="M2 18.99V5.01C2 3.327 3.327 2 4.977 2H8.02c.55 0 .971.453.971 1.003 0 .55-.42 1.003-.97 1.003H4.976c-.517 0-.97.454-.97 1.004v13.98c0 .55.453 1.004.97 1.004h8.026c.55 0 1.004-.453 1.004-1.004V17.05c0-.583.453-.971.97-.971.583 0 1.004.388 1.004.97v1.942c0 1.683-1.327 3.01-2.978 3.01H4.977C3.327 22 2 20.673 2 18.99zm3-2.006c0-.508.452-.984 1-.984s1 .476 1 .984C7 17.524 6.548 18 6 18s-1-.476-1-1.016zm3 0c0-.508.426-.984.984-.984.59 0 1.016.476 1.016.984C10 17.524 9.574 18 8.984 18 8.426 18 8 17.524 8 16.984zm3.002 0c0-.508.451-.984 1-.984.548 0 1 .476 1 .984 0 .54-.452 1.016-1 1.016-.549 0-1-.476-1-1.016zM15.984 2A6.005 6.005 0 0122 8.016c0 3.3-2.685 5.984-6.016 5.984A5.991 5.991 0 0110 8.016C10 4.685 12.685 2 15.984 2zm.785 2.6c-.26 0-.518.13-.712.291l-2.201 2.2c-.226.228-.356.486-.356.713 0 .259.13.518.356.744l2.2 2.168c.195.195.454.292.713.292.582 0 1.035-.453 1.035-1.036 0-.259-.13-.518-.291-.712l-1.456-1.456 1.456-1.456c.162-.195.291-.454.291-.712 0-.583-.453-1.036-1.035-1.036z" fill="#282D37" fill-rule="evenodd"/></svg>
